X: 36303
T: Seamus O Kane's
R: mazurka
M: 3/4
K: Gmajor
GB d2 de|dc B2 G2|GB A2 AB|cA F2 D2|
GB d2 de|dc B2 G2|GB A2 D2|1 F2 G4:|2 F2 G2 Bd||
|:g2 ga ge|d2 B2 Bc|A2 a2 ab|af d2 ef|
g2 ga ge|d2 B2 dB|A2 D2 F2|G2 GA Bd:|
GF GE D2|B2 Bd c2|A2 AF D2|A2 Ac BA|
G2 GE D2|B2 Bd c2|A2 e2 d2|D2 F2 G2:|

